X:368
T: ICH LEBE ALS LANDMANN ZUFRIEDEN
N: E1551
O: Europa, Mitteleuropa, Deutschland, Hessen, Ziegenhain, Schoenau
R: Staende -, Bauern - Lied
M: 6/8
L: 1/16
K: Bb
F2 | d3cB2c2B2G2 | F2D2z6
B2 | A3GF2F2G2A2 | B6z4
F2 | d3cB2c2B2G2 | F2D2z6
B2 | A3GF2F2G2A2 | B6z4
d2 | d2B2d2f2e2c2 | c2B2c2d2B2
F2 | G2e2d2c2B2A2 | B6z4

@@@ Tune index: 5052
